media/costumes/4-glow.svg

<svg width="63" height="77" xmlns="http://www.w3.org/2000/svg"><path fill="#0CC" d="M62.552 63.144c0 5.14-2.75 9.66-7.35 12.09-2.23 1.18-4.83 1.76-7.95 1.76-1.31 0-2.73-.1-4.34-.3-.12-.01-.24-.03-.36-.05-2.49-.39-3.64-.43-4.02-.43h-.12c-.16.02-.32.03-.48.03-.25.02-.61.06-1.1.11-1.3.17-2.44.25-3.49.25-.57 0-1.76.03-4.14.16h-.12c-.65.03-1.22.04-1.73.04-1.35 0-2.48-.09-3.51-.28-3.38-.58-6.38-2.33-8.48-4.98-2.52-3.16-3.05-6.32-3.05-8.42 0-2.73.85-5.33 2.39-7.52-1-.08-1.98-.2-2.94-.38-5.91-1.06-8.98-6.08-10.14-7.98a10.99 10.99 0 0 1-1.36-8.13c.2-.92.52-1.93 1.02-3.24a11.08 11.08 0 0 1 3.78-5.93c2.51-3.43 6.46-9.03 11.76-16.69 1.28-1.84 1.99-2.98 2.37-3.63.98-1.77 2.36-3.4 4.32-5.13 2-1.77 3.77-2.92 5.58-3.64.34-.14.69-.26 1.05-.36 2.54-.73 5.28-.65 7.91.23.24.07.47.16.7.25.42.07.85.16 1.26.27 2.76.75 5.16 2.24 6.94 4.31 2.6 3.04 3.15 6.67 3.35 10.14.02.33.03.67.02 1-.04 1.09-.05 3.24.08 7.32.02.37.04.78.06 1.22 7.03 1.48 10.68 7.32 10.68 13.1 0 1.27-.16 2.54-.5 3.9-.4 1.57-1.13 3.04-2.16 4.3a16.063 16.063 0 0 1-3.95 3.47c4.36 1.91 8.02 6.25 8.02 13.14z"/><path fill="#FFF" d="M50.055 65.514c-.998.528-2.933.616-5.805.264-2.991-.468-5.221-.645-6.686-.527-.235 0-.91.06-2.023.176-.88.118-1.613.176-2.199.176-1.055 0-2.639.06-4.749.176-1.351.06-2.287.032-2.815-.082-.763-.11-1.363-.442-1.803-.995-.44-.553-.66-1.076-.66-1.573 0-.884.498-1.616 1.495-2.197.997-.579 2.023-.869 3.079-.869h6.596c.353 0 .85-.088 1.496-.267.116-2.132-.119-6.13-.704-11.993 0-.948-.016-1.94-.044-2.978-.03-1.036-.279-1.88-.748-2.531-3.284.294-6.948.792-10.995 1.495-3.226.587-5.513.88-6.86.88-.998 0-1.966-.088-2.903-.264-.703-.117-1.613-1.085-2.727-2.903.117-.527.44-1.436.968-2.727v-.264c.176 0 .409-.117.704-.352 2.463-3.283 6.86-9.5 13.193-18.647 1.231-1.76 2.199-3.255 2.903-4.486.352-.645 1.025-1.407 2.022-2.287.997-.88 1.788-1.437 2.375-1.671.41-.117.88-.088 1.407.088.353.176.704.322 1.056.439.938.176 1.437.264 1.495.264.646.176 1.144.471 1.496.88.352.411.585 1.613.703 3.606-.059 1.818-.03 4.517.088 8.093.117 2.639.353 6.627.704 11.962.645.06 1.729 0 3.255-.176 1.759-.233 2.932-.352 3.519-.352 2.168 0 3.254.821 3.254 2.463 0 .352-.059.763-.176 1.231-1.056 1.29-2.551 1.935-4.485 1.935h-2.727c-.703 0-1.319.089-1.847.265 0 2.053.116 5.132.352 9.235.352 4.75.704 7.683 1.056 8.796 1.583-.058 3.928-.028 7.037.088 1.465.118 2.198 1.203 2.198 3.255 0 1.055-.498 1.847-1.495 2.374zM34.398 36.928c-.527-4.867-.851-10.145-.968-15.833-.118 0-.206-.029-.264-.088.176-.176.264-.322.264-.44 0-.058-.088-.233-.264-.527-.118-.233-.118-.439 0-.616.176-.233.264-.527.264-.879-.821.821-1.642 1.906-2.463 3.254-1.35 2.171-2.141 3.431-2.374 3.783-2.229 2.933-5.045 7.066-8.444 12.402-.06.234 0 .439.176.615 1.759 0 4.104-.205 7.037-.615 3.752-.587 6.098-.938 7.036-1.056z"/></svg>

<svg version="1.1" width="63" height="77" xmlns="http://www.w3.org/2000/svg" xmlns:xlink="http://www.w3.org/1999/xlink">
  <!-- Exported by Scratch - http://scratch.mit.edu/ -->
  <g id="ID0.7159087448380888">
    <g id="ID0.9115082491189241">
      <g id="ID0.6069691181182861">
        <path id="ID0.777123139705509" fill="#00CCCC" d="M 62.552 63.144 C 62.552 68.284 59.802 72.804 55.202 75.234 C 52.972 76.414 50.372 76.994 47.252 76.994 C 45.942 76.994 44.522 76.894 42.912 76.694 C 42.792 76.684 42.672 76.664 42.552 76.644 C 40.062 76.254 38.912 76.214 38.532 76.214 L 38.412 76.214 C 38.252 76.234 38.092 76.244 37.932 76.244 C 37.682 76.264 37.322 76.304 36.832 76.354 C 35.532 76.524 34.392 76.604 33.342 76.604 C 32.772 76.604 31.582 76.634 29.202 76.764 L 29.082 76.764 C 28.432 76.794 27.862 76.804 27.352 76.804 C 26.002 76.804 24.872 76.714 23.842 76.524 C 20.462 75.944 17.462 74.194 15.362 71.544 C 12.842 68.384 12.312 65.224 12.312 63.124 C 12.312 60.394 13.162 57.794 14.702 55.604 C 13.702 55.524 12.722 55.404 11.762 55.224 C 5.852 54.164 2.782 49.144 1.622 47.244 C 0.132 44.814 -0.358 41.894 0.262 39.114 C 0.462 38.194 0.782 37.184 1.282 35.874 C 1.872 33.504 3.222 31.434 5.062 29.944 C 7.572 26.514 11.522 20.914 16.822 13.254 C 18.102 11.414 18.812 10.274 19.192 9.624 C 20.172 7.854 21.552 6.224 23.512 4.494 C 25.512 2.724 27.282 1.574 29.092 0.854 C 29.432 0.714 29.782 0.594 30.142 0.494 C 32.682 -0.236 35.422 -0.156 38.052 0.724 C 38.292 0.794 38.522 0.884 38.752 0.974 C 39.172 1.044 39.602 1.134 40.012 1.244 C 42.772 1.994 45.172 3.484 46.952 5.554 C 49.552 8.594 50.102 12.224 50.302 15.694 C 50.322 16.024 50.332 16.364 50.322 16.694 C 50.282 17.784 50.272 19.934 50.402 24.014 C 50.422 24.384 50.442 24.794 50.462 25.234 C 57.492 26.714 61.142 32.554 61.142 38.334 C 61.142 39.604 60.982 40.874 60.642 42.234 C 60.242 43.804 59.512 45.274 58.482 46.534 C 57.342 47.924 56.012 49.084 54.532 50.004 C 58.892 51.914 62.552 56.254 62.552 63.144 Z "/>
      </g>
    </g>
    <g id="ID0.7618503365665674">
      <path id="ID0.8773718820884824" fill="#FFFFFF" d="M 50.055 65.514 C 49.057 66.042 47.122 66.130 44.250 65.778 C 41.259 65.310 39.029 65.133 37.564 65.251 C 37.329 65.251 36.654 65.311 35.541 65.427 C 34.661 65.545 33.928 65.603 33.342 65.603 C 32.287 65.603 30.703 65.663 28.593 65.779 C 27.242 65.839 26.306 65.811 25.778 65.697 C 25.015 65.587 24.415 65.255 23.975 64.702 C 23.535 64.149 23.315 63.626 23.315 63.129 C 23.315 62.245 23.813 61.513 24.810 60.932 C 25.807 60.353 26.833 60.063 27.889 60.063 C 28.358 60.063 28.769 60.063 29.120 60.063 L 34.485 60.063 C 34.838 60.063 35.335 59.975 35.981 59.796 C 36.097 57.664 35.862 53.666 35.277 47.803 C 35.277 46.855 35.261 45.863 35.233 44.825 C 35.203 43.789 34.954 42.945 34.485 42.294 C 31.201 42.588 27.537 43.086 23.490 43.789 C 20.264 44.376 17.977 44.669 16.630 44.669 C 15.632 44.669 14.664 44.581 13.727 44.405 C 13.024 44.288 12.114 43.320 11 41.502 C 11.117 40.975 11.440 40.066 11.968 38.775 C 11.968 38.659 11.968 38.571 11.968 38.511 C 12.144 38.511 12.377 38.394 12.672 38.159 C 15.135 34.876 19.532 28.659 25.865 19.512 C 27.096 17.752 28.064 16.257 28.768 15.026 C 29.120 14.381 29.793 13.619 30.790 12.739 C 31.787 11.859 32.578 11.302 33.165 11.068 C 33.575 10.951 34.045 10.980 34.572 11.156 C 34.925 11.332 35.276 11.478 35.628 11.595 C 36.566 11.771 37.065 11.859 37.123 11.859 C 37.769 12.035 38.267 12.330 38.619 12.739 C 38.971 13.150 39.204 14.352 39.322 16.345 C 39.263 18.163 39.292 20.862 39.410 24.438 C 39.527 27.077 39.763 31.065 40.114 36.400 C 40.759 36.460 41.843 36.400 43.369 36.224 C 45.128 35.991 46.301 35.872 46.888 35.872 C 49.056 35.872 50.142 36.693 50.142 38.335 C 50.142 38.687 50.083 39.098 49.966 39.566 C 48.910 40.856 47.415 41.501 45.481 41.501 C 45.186 41.501 44.733 41.501 44.117 41.501 C 43.502 41.501 43.047 41.501 42.754 41.501 C 42.051 41.501 41.435 41.590 40.907 41.766 C 40.907 43.819 41.023 46.898 41.259 51.001 C 41.611 55.751 41.963 58.684 42.315 59.797 C 43.898 59.739 46.243 59.769 49.352 59.885 C 50.817 60.003 51.550 61.088 51.550 63.140 C 51.550 64.195 51.052 64.987 50.055 65.514 Z M 34.398 36.928 C 33.871 32.061 33.547 26.783 33.430 21.095 C 33.312 21.095 33.224 21.066 33.166 21.007 C 33.342 20.831 33.430 20.685 33.430 20.567 C 33.430 20.509 33.342 20.334 33.166 20.040 C 33.048 19.807 33.048 19.601 33.166 19.424 C 33.342 19.191 33.430 18.897 33.430 18.545 C 32.609 19.366 31.788 20.451 30.967 21.799 C 29.617 23.970 28.826 25.230 28.593 25.582 C 26.364 28.515 23.548 32.648 20.149 37.984 C 20.089 38.218 20.149 38.423 20.325 38.599 C 22.084 38.599 24.429 38.394 27.362 37.984 C 31.114 37.397 33.460 37.046 34.398 36.928 Z "/>
    </g>
  </g>
</svg>
